X:1
T:Title
%%score { ( 1 3 ) | ( 2 4 ) }
L:1/8
M:4/4
K:F
V:1 treble nm="Grand Piano"
V:3 treble 
V:2 bass 
V:4 bass 
V:1
 z4 z2[Q:1/4=104] CF | A3 A B2 A2 | [B,DG]4 [B,D]2 [DF]2 | C3- [C-F] [CG]2 C2 | A6 CF | %5
 A3 A B2 A2 | [DG]4 D2 D2 | C2 A2 [EG]3 F |[M:3/4] F6 |[M:1/4] F2 |[M:4/4] E4 [EG]3 G | F4 A3 A | %12
 [EG]2 [FA]2 [GB]2 [Bd]2 | [FAc]6 A2 | c3 c B2 A2 | [DG]2 [DF]2 [B,D]3 D | %16
 [A,C]2 [CFA]2 [B,EG]3 [A,CF] |[M:3/4] [F,A,CF]6 |] %18
V:2
 z4 z2 [F,A,]2 | [F,CF]4 [F,DF]2 [F,CF]2 | B,,4 B,,2 =B,,2 | z2 z A, B,2 C,2 | [F,CF]6 [F,A,]2 | %5
 [F,CF]4 [F,DF]2 [F,CF]2 | [B,,B,]4 [B,,F,]2 [=B,,_A,]2 | A,2 [CF]2 [C,B,]3 [F,A,C] | %8
[M:3/4] [F,A,C]6 |[M:1/4] [F,A,C]2 |[M:4/4] [C,G,C]4 z2 z E | [F,A,C]4[K:treble] F3 F | %12
 [C,C]4 z2 E2 | F,,2 A,,C, F,2[K:treble] F2 | [F,A,F]4[K:bass] C2- [F,C]2 | %15
 [B,,B,]2 [B,,B,]2 z2 z B, | C,2 C,2 C,3 F, |[M:3/4] F,,6 |] %18
V:3
 x8 | x8 | z4 G,4 | [G,E]4 z4 | x8 | x8 | x8 | x8 |[M:3/4] x6 |[M:1/4] x2 |[M:4/4] x8 | x8 | x8 | %13
 x8 | x8 | x8 | x8 |[M:3/4] x6 |] %18
V:4
 x8 | x8 | x8 | C,6 z2 | x8 | x8 | x8 | C,4 z4 |[M:3/4] x6 |[M:1/4] x2 |[M:4/4] z4 [C,B,]4 | %11
 z4[K:treble] [F,C]4 | z4 [C,C]4 | x6[K:treble] x2 | z4[K:bass] [E,G,]2 z2 | z4 [B,,F,]4 | x8 | %17
[M:3/4] x6 |] %18

